app/img/icon/apps.svg

<svg xmlns="http://www.w3.org/2000/svg" height="24" fill="#fff" width="24"><path d="M0 0h24v24H0V0z" fill="none"/><path d="M6 8c1.1 0 2-.9 2-2s-.9-2-2-2-2 .9-2 2 .9 2 2 2zm6 12c1.1 0 2-.9 2-2s-.9-2-2-2-2 .9-2 2 .9 2 2 2zm-6 0c1.1 0 2-.9 2-2s-.9-2-2-2-2 .9-2 2 .9 2 2 2zm0-6c1.1 0 2-.9 2-2s-.9-2-2-2-2 .9-2 2 .9 2 2 2zm6 0c1.1 0 2-.9 2-2s-.9-2-2-2-2 .9-2 2 .9 2 2 2zm4-8c0 1.1.9 2 2 2s2-.9 2-2-.9-2-2-2-2 .9-2 2zm-4 2c1.1 0 2-.9 2-2s-.9-2-2-2-2 .9-2 2 .9 2 2 2zm6 6c1.1 0 2-.9 2-2s-.9-2-2-2-2 .9-2 2 .9 2 2 2zm0 6c1.1 0 2-.9 2-2s-.9-2-2-2-2 .9-2 2 .9 2 2 2z"/></svg>

<svg xmlns="http://www.w3.org/2000/svg" enable-background="new 0 0 24 24" height="24" viewBox="0 0 24 24" fill="white" width="24"><g><path d="M0,0h24v24H0V0z" fill="none"/></g><g><g><g><path d="M6,8L6,8c1.1,0,2-0.9,2-2v0c0-1.1-0.9-2-2-2h0C4.9,4,4,4.9,4,6v0C4,7.1,4.9,8,6,8z M12,20L12,20c1.1,0,2-0.9,2-2v0 c0-1.1-0.9-2-2-2h0c-1.1,0-2,0.9-2,2v0C10,19.1,10.9,20,12,20z M6,20L6,20c1.1,0,2-0.9,2-2v0c0-1.1-0.9-2-2-2h0c-1.1,0-2,0.9-2,2 v0C4,19.1,4.9,20,6,20z M6,14L6,14c1.1,0,2-0.9,2-2v0c0-1.1-0.9-2-2-2h0c-1.1,0-2,0.9-2,2v0C4,13.1,4.9,14,6,14z M12,14L12,14 c1.1,0,2-0.9,2-2v0c0-1.1-0.9-2-2-2h0c-1.1,0-2,0.9-2,2v0C10,13.1,10.9,14,12,14z M16,6L16,6c0,1.1,0.9,2,2,2h0c1.1,0,2-0.9,2-2 v0c0-1.1-0.9-2-2-2h0C16.9,4,16,4.9,16,6z M12,8L12,8c1.1,0,2-0.9,2-2v0c0-1.1-0.9-2-2-2h0c-1.1,0-2,0.9-2,2v0 C10,7.1,10.9,8,12,8z M18,14L18,14c1.1,0,2-0.9,2-2v0c0-1.1-0.9-2-2-2h0c-1.1,0-2,0.9-2,2v0C16,13.1,16.9,14,18,14z M18,20L18,20 c1.1,0,2-0.9,2-2v0c0-1.1-0.9-2-2-2h0c-1.1,0-2,0.9-2,2v0C16,19.1,16.9,20,18,20z"/></g></g></g></svg>
